X: 519
T: Pie baicai
%%abc-version 2.0
%%abcx-abcm2ps-target-version 5.9.1 (29 Sep 2008)
%%abc-creator hum2abc beta
%%abcx-conversion-date 2013/10/02 07:52:30
%%abc-edited-by Helmut Schaffrath
%%humdrum-veritas 3252423494
%%humdrum-veritas-data 4030979384
%%continueall 1
%%barnumbers 0
L: 1/16
M: 2/4
K: G
G2 G2 F2 E D [I:setbarnb 1]| 
F2> E2D4 | 
e g B2 d e B A | 
G4E4 | 
e g e B d ^c B2 | 
A2 B AG4 | 
c2 E2 G2 F E | 
D8 | 
e g e B d2 ^c B | 
A2 B AG4 | 
c2 E2 G2 F, E | 
D8 |]  



